SF_Symbols/play.slash.svg

<?xml version="1.0" encoding="UTF-8"?>
<svg xmlns="http://www.w3.org/2000/svg" xmlns:xlink="http://www.w3.org/1999/xlink" width="24" height="24" viewBox="0 0 24 24" version="1.1">
<g id="surface1">
<path style=" stroke:none;fill-rule:nonzero;fill:rgb(100%,100%,100%);fill-opacity:1;" d="M 14.664062 18.738281 L 13.085938 17.15625 L 5.824219 21.363281 C 5.761719 21.398438 5.710938 21.414062 5.664062 21.414062 C 5.574219 21.414062 5.53125 21.363281 5.53125 21.253906 L 5.53125 9.601562 L 3.375 7.433594 L 3.375 22.042969 C 3.375 22.625 3.519531 23.089844 3.804688 23.4375 C 4.097656 23.792969 4.492188 23.972656 4.980469 23.972656 C 5.25 23.972656 5.503906 23.925781 5.746094 23.824219 C 5.988281 23.738281 6.242188 23.613281 6.507812 23.449219 Z M 19.394531 16.003906 L 22.125 14.425781 C 22.6875 14.09375 23.074219 13.804688 23.289062 13.554688 C 23.511719 13.292969 23.625 12.988281 23.625 12.628906 C 23.625 12.273438 23.511719 11.96875 23.289062 11.71875 C 23.074219 11.460938 22.6875 11.167969 22.125 10.847656 L 6.507812 1.808594 C 6.269531 1.675781 6.035156 1.5625 5.8125 1.472656 C 5.589844 1.375 5.351562 1.316406 5.101562 1.300781 L 10.21875 6.441406 L 20.652344 12.480469 C 20.679688 12.5 20.707031 12.523438 20.730469 12.550781 C 20.757812 12.566406 20.773438 12.59375 20.773438 12.628906 C 20.773438 12.664062 20.757812 12.695312 20.730469 12.722656 C 20.707031 12.742188 20.679688 12.757812 20.652344 12.777344 L 17.8125 14.4375 Z M 20.625 22.417969 C 20.832031 22.625 21.074219 22.726562 21.363281 22.726562 C 21.648438 22.726562 21.886719 22.625 22.085938 22.417969 C 22.28125 22.214844 22.378906 21.972656 22.378906 21.695312 C 22.386719 21.410156 22.289062 21.164062 22.085938 20.960938 L 2.277344 1.164062 C 2.070312 0.96875 1.824219 0.871094 1.539062 0.871094 C 1.253906 0.863281 1.007812 0.960938 0.804688 1.164062 C 0.605469 1.363281 0.507812 1.605469 0.507812 1.902344 C 0.507812 2.1875 0.605469 2.429688 0.804688 2.625 Z M 20.625 22.417969 "/>
</g>
</svg>

<svg xmlns="http://www.w3.org/2000/svg" width="24" height="24"><path style="stroke:none;fill-rule:nonzero;fill:#fff;fill-opacity:1" d="m14.664 18.738-1.578-1.582-7.262 4.207a.323.323 0 0 1-.16.051c-.09 0-.133-.05-.133-.16V9.602L3.375 7.434v14.609c0 .582.145 1.047.43 1.395.293.355.687.535 1.175.535.27 0 .524-.047.766-.149.242-.086.496-.21.762-.375Zm4.73-2.734 2.731-1.578c.563-.332.95-.621 1.164-.871.223-.262.336-.567.336-.926 0-.356-.113-.66-.336-.91-.215-.258-.602-.551-1.164-.871L6.508 1.808a6.694 6.694 0 0 0-.696-.335 2.13 2.13 0 0 0-.71-.172l5.117 5.14 10.433 6.04c.028.019.055.042.078.07a.09.09 0 0 1 .043.078c0 .035-.015.07-.043.094-.023.02-.05.035-.078.054l-2.84 1.66Zm1.231 6.414c.191.203.46.312.738.309a.96.96 0 0 0 .723-.309c.191-.191.297-.453.293-.723a.958.958 0 0 0-.293-.734L2.277 1.164A1.04 1.04 0 0 0 1.54.871a.963.963 0 0 0-.734.293c-.2.2-.297.441-.297.738 0 .286.097.528.297.723Zm0 0"/></svg>
